website/public/ArrowLeft.svg

<svg width="16" height="16" viewBox="0 0 16 16" fill="none" xmlns="http://www.w3.org/2000/svg">
<path d="M0.195195 8.48946L3.38053 11.7973C3.47376 11.8941 3.59254 11.96 3.72184 11.9867C3.85114 12.0134 3.98517 11.9997 4.10697 11.9473C4.22876 11.8949 4.33287 11.8062 4.40613 11.6924C4.47939 11.5786 4.5185 11.4447 4.51853 11.3078L4.51853 9.21154C4.51853 9.16563 4.53609 9.12161 4.56734 9.08915C4.5986 9.05669 4.64099 9.03846 4.6852 9.03846L14.9999 9.03846C15.2651 9.03846 15.5194 8.92905 15.707 8.7343C15.8945 8.53955 15.9999 8.27542 15.9999 8C15.9999 7.72458 15.8945 7.46045 15.707 7.2657C15.5194 7.07095 15.2651 6.96154 14.9999 6.96154L4.6852 6.96154C4.64099 6.96154 4.5986 6.9433 4.56734 6.91085C4.53609 6.87839 4.51853 6.83437 4.51853 6.78846L4.51853 4.69216C4.5185 4.55526 4.47939 4.42143 4.40613 4.30761C4.33287 4.19379 4.22877 4.10508 4.10697 4.05269C3.98517 4.0003 3.85114 3.98659 3.72184 4.01329C3.59254 4.03999 3.47376 4.10591 3.38053 4.2027L0.195195 7.51054C0.0702147 7.64036 4.97517e-06 7.81642 4.95912e-06 8C4.94307e-06 8.18357 0.0702147 8.35963 0.195195 8.48946V8.48946Z" fill="#1F1F1F"/>
</svg>

<svg width="16" height="16" fill="none" xmlns="http://www.w3.org/2000/svg"><path d="M.195 8.49l3.186 3.307a.644.644 0 00.726.15.673.673 0 00.3-.255.711.711 0 00.112-.384V9.212c0-.046.017-.09.048-.123a.164.164 0 01.118-.05H15c.265 0 .52-.11.707-.305A1.06 1.06 0 0016 8c0-.275-.105-.54-.293-.734A.982.982 0 0015 6.962H4.685a.164.164 0 01-.118-.051.177.177 0 01-.048-.123V4.692c0-.137-.04-.27-.113-.384a.673.673 0 00-.299-.255.644.644 0 00-.726.15L.195 7.51A.706.706 0 000 8c0 .184.07.36.195.49z" fill="#1F1F1F"/></svg>
